X: 257
T:Ave Maria...benedicta tu
N: Derived from Jos2304-Ave_Maria_..._benedicta_tu.krn
C: Josquin des Prez
%%abc-version 2.0
%%abcx-abcm2ps-target-version 5.9.1 (29 Sep 2008)
%%abc-creator hum2abc beta
%%abcx-conversion-date 2019/02/12 16:15:51
%%abc-edited-by Jesse Rodin
%%abc-edited-by Jesse Rodin; Victoria Chang 2011/05/21
%%abcx-initial-encoding-date 2011/05/21/
%%humdrum-veritas 656254750
%%humdrum-veritas-data 2116309740
%%linebreak <none>
%%barnumbers 0
L: 1/4
M: 2/1
Q: 1/2=120
%%staves [1 2 3 4]
V: 1 clef=treble
V: 2 clef=treble-8
V: 3 clef=treble-8
V: 4 clef=bass
K: Bb
[V:1] z8 | 
[V:2] z8 | 
[V:3] B8 | 
[V:4] z8 | 
[V:1] z8 | 
[V:2] z8 | 
[V:3] F4G4 | 
[V:4] z8 | 
[V:1] B8 | 
[V:2] z8 | 
[V:3] G2A2B2c2 | 
[V:4] z8 | 
[V:1] F4G4 | 
[V:2] z8 | 
[V:3] d4e3d | 
[V:4] z8 | 
[V:1] G2A2B2c2 | 
[V:2] z8 | 
[V:3] e2f2e3d/c/ | 
[V:4] z8 | 
[V:1] d4c2B2- | 
[V:2] B8 | 
[V:3] B2f4d2 | 
[V:4] z8 | 
[V:1] B2A2B4 | 
[V:2] F4G4 | 
[V:3] c4B4- | 
[V:4] z8 | 
[V:1] z8 | 
[V:2] G2A2B2c2 | 
[V:3] B2A2G4 | 
[V:4] E,8 | 
[V:1] z8 | 
[V:2] d4e3d | 
[V:3] F4z4 | 
[V:4] B,,4C,4 | 
[V:1] z8 | 
[V:2] e2f2g2a2- | 
[V:3] z8 | 
[V:4] C,2D,2E,2F,2 | 
[V:1] d4c4 | 
[V:2] agg3^f^f=e | 
[V:3] z8 | 
[V:4] G,2B,2A,4 | 
[V:1] B4c4 | 
[V:2] g4z4 | 
[V:3] z2d2=e2f2 | 
[V:4] G,4z4 | 
[V:1] d4z4 | 
[V:2] z2d3cBA | 
[V:3] B4z4 | 
[V:4] z4z2D2- | 
[V:1] z8 | 
[V:2] B3cG2A2- | 
[V:3] z8 | 
[V:4] DCB,A,B,2C2 | 
[V:1] z8 | 
[V:2] AGG4^F2 | 
[V:3] z8 | 
[V:4] G,4A,4 | 
[V:1] z2d3cBA | 
[V:2] G4z2g2 | 
[V:3] z4z2d2- | 
[V:4] G,4z2G,2 | 
[V:1] B3cG2A2- | 
[V:2] g3f=e2f2 | 
[V:3] dcBAB2c2 | 
[V:4] G,3A,G,2F,2 | 
[V:1] AGG4^F2 | 
[V:2] B2c2d3c | 
[V:3] G4A4 | 
[V:4] E,4D,4 | 
[V:1] G2B4AG | 
[V:2] BAd2G4 | 
[V:3] G4z2c2 | 
[V:4] z4z2E,2 | 
[V:1] F4z4 | 
[V:2] A4z4 | 
[V:3] d4c2d2- | 
[V:4] D,2F,3E,D,C, | 
[V:1] z4z2c2 | 
[V:2] z4z2e2 | 
[V:3] dcB4A2 | 
[V:4] B,,2D,2C,4 | 
[V:1] d4c2d2- | 
[V:2] d2f3edc | 
[V:3] B4z4 | 
[V:4] B,,4z4 | 
[V:1] dcB4A2 | 
[V:2] B2d2c4 | 
[V:3] z8 | 
[V:4] z4z2F,2 | 
[V:1] B4z4 | 
[V:2] B4z2c2 | 
[V:3] z8 | 
[V:4] G,3F,G,2E,2 | 
[V:1] z8 | 
[V:2] d3cd2B2 | 
[V:3] z8 | 
[V:4] D,8 | 
[V:1] z2c2d3c | 
[V:2] A2a2f2g2- | 
[V:3] z8 | 
[V:4] z8 | 
[V:1] d2B2ABcd | 
[V:2] gfd=efga2- | 
[V:3] z8 | 
[V:4] z8 | 
[V:1] =efg2f2e2- | 
[V:2] ag=e2f2g2 | 
[V:3] z2c2d3c | 
[V:4] z8 | 
[V:1] edd4^c2 | 
[V:2] d4=e4 | 
[V:3] d2B2A4 | 
[V:4] z4z2A,2 | 
[V:1] d4z4 | 
[V:2] d4z2=e2 | 
[V:3] z8 | 
[V:4] B,2B,2G,4 | 
[V:1] z4z2B2 | 
[V:2] f2f2d4 | 
[V:3] z8 | 
[V:4] F,4z2G,2 | 
[V:1] c2c2A4 | 
[V:2] c4z2c2 | 
[V:3] z2=e2f2f2 | 
[V:4] A,2A,2F,2F,2 | 
[V:1] G4z2c2 | 
[V:2] B2B2e2e2 | 
[V:3] d4c4 | 
[V:4] G,4C,4 | 
[V:1] B2A2G2G2 | 
[V:2] d4z2c2 | 
[V:3] z2F2G2G2 | 
[V:4] D,4E,4 | 
[V:1] F4z2c2 | 
[V:2] d4e4 | 
[V:3] A2A2G4 | 
[V:4] D,4z2C,2 | 
[V:1] A2B4AG | 
[V:2] d4z2c2 | 
[V:3] z2F2G4 | 
[V:4] D,4E,4 | 
[V:1] F4z2c2 | 
[V:2] d2d2e4 | 
[V:3] A4G4 | 
[V:4] D,4z2C,2 | 
[V:1] A2B4AG | 
[V:2] d4z2c2 | 
[V:3] z2F2G4 | 
[V:4] D,4E,4 | 
[V:1] F4G2B2- | 
[V:2] d4e4 | 
[V:3] A4G3A | 
[V:4] D,4z2G,2- | 
[V:1] B2A3GB2- | 
[V:2] d2f3edc | 
[V:3] B2c4G2 | 
[V:4] G,2F,4G,2- | 
[V:1] BAG4^F2 | 
[V:2] d2e2d4 | 
[V:3] B2c2A4 | 
[V:4] G,2C,2D,4 | 
[V:1] [M:3/1]G8z4 | 
[V:2] [M:3/1]d8z4 | 
[V:3] [M:3/1]G8z4 | 
[V:4] [M:3/1]G,8z4 | 
[V:1] G8B4 | 
[V:2] z12 | 
[V:3] g8g4 | 
[V:4] z12 | 
[V:1] A4B4c4 | 
[V:2] z12 | 
[V:3] f4g4e4 | 
[V:4] z12 | 
[V:1] d8z4 | 
[V:2] G8B4 | 
[V:3] d8z4 | 
[V:4] G,8G,4 | 
[V:1] z12 | 
[V:2] A4B4c4 | 
[V:3] d4d4e4 | 
[V:4] F,4G,4E,4 | 
[V:1] d4d4e4 | 
[V:2] d8z4 | 
[V:3] f8e4 | 
[V:4] D,8z4 | 
[V:1] f8e4 | 
[V:2] z12 | 
[V:3] d8c4 | 
[V:4] z12 | 
[V:1] d8c4 | 
[V:2] d4d4e4 | 
[V:3] d8z4 | 
[V:4] z12 | 
[V:1] d8z4 | 
[V:2] f8e4 | 
[V:3] z12 | 
[V:4] D,4D,4E,4 | 
[V:1] z12 | 
[V:2] d8c4 | 
[V:3] z12 | 
[V:4] F,8E,4 | 
[V:1] f4f4e4 | 
[V:2] d8z4 | 
[V:3] z12 | 
[V:4] D,8C,4 | 
[V:1] d6c2B4 | 
[V:2] A4A4B4 | 
[V:3] z12 | 
[V:4] D,8G,4 | 
[V:1] A8c4 | 
[V:2] c8g4 | 
[V:3] f4f4=e4 | 
[V:4] F,8C,4 | 
[V:1] B6A2G4 | 
[V:2] g6f2d4 | 
[V:3] d6c2B4 | 
[V:4] G,8G,4 | 
[V:1] F4B6A2 | 
[V:2] d4g4f4- | 
[V:3] A4G4c4- | 
[V:4] D,4E,4F,4- | 
[V:1] A8G4 | 
[V:2] f2=e2d4=e4 | 
[V:3] c4B8 | 
[V:4] F,4G,8 | 
[V:1] [M:2/1]A8 | 
[V:2] [M:2/1]d4z2d2 | 
[V:3] [M:2/1]A8 | 
[V:4] [M:2/1]D,8 | 
[V:1] z8 | 
[V:2] d3cB2A2 | 
[V:3] z8 | 
[V:4] z2D2D3C | 
[V:1] z2d2d3c | 
[V:2] G2F2G2D2 | 
[V:3] z4z2d2 | 
[V:4] B,2A,2G,2F,2 | 
[V:1] B2A2G2F2 | 
[V:2] d2f3=edc | 
[V:3] d3cB2A2 | 
[V:4] G,2D,2z2D,2 | 
[V:1] G2A2B2c2 | 
[V:2] B2d3c/B/f2 | 
[V:3] G2F2G2A2 | 
[V:4] E,2D,2G,2F,2 | 
[V:1] G3ABcd2- | 
[V:2] d2e2d4 | 
[V:3] B2c2G3A | 
[V:4] G,2C,2z2G,2- | 
[V:1] dcBAB2A2- | 
[V:2] g3fg2=e2 | 
[V:3] Bcd4c2- | 
[V:4] G,A,G,4A,2 | 
[V:1] AGG4^F2 | 
[V:2] f2d3cA2 | 
[V:3] c2B2A4 | 
[V:4] F,2G,2D,4 | 
[V:1] G8- | 
[V:2] B4e4 | 
[V:3] G8- | 
[V:4] G,8- | 
[V:1] G8 |]  
[V:2] d8 |]  
[V:3] G8 |]  
[V:4] G,8 |]  



